X:139
T: SEHT JI HERRENS SEHT
N: Z0138
O: Europa, Mitteleuropa, Deutschland, Niedersachsen
R: Erzaehlung, lustige Romanze
M: 2/4
L: 1/8
K: F
 | FGAB | c3
A | BGBA | F4
BAGF | BAGF
BAGF | BAG2
BAGF | BAGF
BAGF | BAGE | F4

